X:8003
T:Wee'l all Lye Together
O:england
R:Slip jig
M:9/8
A:Westmorland
N:P11(?) 2/3
K:G
G2B d2B c2A|G2B d2B cBA|\
G2B d2e c3|AcA F2A cBA:|
|:G3 D2E F2D|G3 D2B cBA|\
G3 D2E F2G|ABA F2A cAB:|


